branches/nugui/src/gui/icons/style_sphere.svg

<?xml version="1.0" encoding="UTF-8" standalone="no"?>
<!-- Created with Inkscape (http://www.inkscape.org/) -->

<svg
   xmlns:dc="http://purl.org/dc/elements/1.1/"
   xmlns:cc="http://creativecommons.org/ns#"
   xmlns:rdf="http://www.w3.org/1999/02/22-rdf-syntax-ns#"
   xmlns:svg="http://www.w3.org/2000/svg"
   xmlns="http://www.w3.org/2000/svg"
   xmlns:xlink="http://www.w3.org/1999/xlink"
   xmlns:inkscape="http://www.inkscape.org/namespaces/inkscape"
   version="1.0"
   width="100"
   height="100"
   id="svg2">
  <metadata
     id="metadata115">
    <rdf:RDF>
      <cc:Work
         rdf:about="">
        <dc:format>image/svg+xml</dc:format>
        <dc:type
           rdf:resource="http://purl.org/dc/dcmitype/StillImage" />
      </cc:Work>
    </rdf:RDF>
  </metadata>
  <defs
     id="defs4">
    <linearGradient
       id="linearGradient3384">
      <stop
         id="stop3386"
         style="stop-color:#ff0000;stop-opacity:1"
         offset="0" />
      <stop
         id="stop3388"
         style="stop-color:#000000;stop-opacity:1"
         offset="1" />
    </linearGradient>
    <linearGradient
       id="linearGradient3252">
      <stop
         id="stop3254"
         style="stop-color:#ffffff;stop-opacity:1"
         offset="0" />
      <stop
         id="stop3256"
         style="stop-color:#ff0000;stop-opacity:0"
         offset="1" />
    </linearGradient>
    <radialGradient
       cx="58.01162"
       cy="63.345894"
       r="33.113495"
       fx="58.01162"
       fy="63.345894"
       id="radialGradient3309"
       xlink:href="#linearGradient3252"
       gradientUnits="userSpaceOnUse"
       gradientTransform="matrix(0.5123554,0,0,0.5123554,10.036276,2.1773356)" />
    <linearGradient
       x1="25.398125"
       y1="63.345894"
       x2="90.625114"
       y2="63.345894"
       id="linearGradient3312"
       xlink:href="#linearGradient3384"
       gradientUnits="userSpaceOnUse"
       gradientTransform="matrix(0.6454758,0.6454758,-0.6454758,0.6454758,54.259471,-32.414977)" />
  </defs>
  <path
     d="m 84.197704,51.17004 c 0.0029,16.444064 -13.326861,29.776139 -29.770926,29.776139 -16.444064,0 -29.773804,-13.332075 -29.770925,-29.776139 -0.0029,-16.444064 13.326861,-29.776139 29.770925,-29.776139 16.444065,0 29.773805,13.332075 29.770926,29.776139 z"
     inkscape:connector-curvature="0"
     id="path3289"
     style="fill:#282828;fill-opacity:1;fill-rule:evenodd;stroke:none" />
  <path
     d="m 80.278556,46.028995 c 0.0029,16.444064 -13.326861,29.776139 -29.770926,29.776139 -16.444064,0 -29.773803,-13.332075 -29.770924,-29.776139 -0.0029,-16.444064 13.32686,-29.776139 29.770924,-29.776139 16.444065,0 29.773805,13.332075 29.770926,29.776139 z"
     inkscape:connector-curvature="0"
     id="path2277"
     style="fill:#ff0000;fill-rule:evenodd;stroke:#000000;stroke-width:0.91284072px;stroke-linecap:butt;stroke-linejoin:miter;stroke-opacity:1" />
  <path
     d="M 71.867547,66.969583 C 60.241875,78.599327 41.389126,78.600978 29.761417,66.973269 18.133709,55.345561 18.13536,36.492812 29.765104,24.86714 c 11.625673,-11.629744 30.478421,-11.631396 42.10613,-0.0037 11.627709,11.627709 11.626057,30.480457 -0.0037,42.10613 z"
     inkscape:connector-curvature="0"
     id="path3262"
     style="opacity:0.71739131;fill:url(#linearGradient3312);fill-opacity:1;fill-rule:evenodd;stroke:none" />
  <path
     d="m 56.468543,34.632946 c 0.0016,9.229656 -7.480045,16.712627 -16.709701,16.712627 -9.229655,0 -16.711315,-7.482971 -16.7097,-16.712627 -0.0016,-9.229655 7.480045,-16.712626 16.7097,-16.712626 9.229656,0 16.711317,7.482971 16.709701,16.712626 z"
     inkscape:connector-curvature="0"
     id="path2279"
     style="fill:url(#radialGradient3309);fill-opacity:1;fill-rule:evenodd;stroke:none" />
</svg>

<?xml version="1.0" encoding="UTF-8" standalone="no"?>
<!-- Created with Inkscape (http://www.inkscape.org/) -->
<svg
   xmlns:svg="http://www.w3.org/2000/svg"
   xmlns="http://www.w3.org/2000/svg"
   xmlns:xlink="http://www.w3.org/1999/xlink"
   version="1.0"
   width="100"
   height="100"
   id="svg2">
  <defs
     id="defs4">
    <linearGradient
       id="linearGradient3384">
      <stop
         id="stop3386"
         style="stop-color:#ff0000;stop-opacity:1"
         offset="0" />
      <stop
         id="stop3388"
         style="stop-color:#000000;stop-opacity:1"
         offset="1" />
    </linearGradient>
    <linearGradient
       id="linearGradient3252">
      <stop
         id="stop3254"
         style="stop-color:#ffffff;stop-opacity:1"
         offset="0" />
      <stop
         id="stop3256"
         style="stop-color:#ff0000;stop-opacity:0"
         offset="1" />
    </linearGradient>
    <radialGradient
       cx="58.01162"
       cy="63.345894"
       r="33.113495"
       fx="58.01162"
       fy="63.345894"
       id="radialGradient3309"
       xlink:href="#linearGradient3252"
       gradientUnits="userSpaceOnUse"
       gradientTransform="matrix(0.5123554,0,0,0.5123554,10.036276,2.1773356)" />
    <linearGradient
       x1="25.398125"
       y1="63.345894"
       x2="90.625114"
       y2="63.345894"
       id="linearGradient3312"
       xlink:href="#linearGradient3384"
       gradientUnits="userSpaceOnUse"
       gradientTransform="matrix(0.6454758,0.6454758,-0.6454758,0.6454758,54.259471,-32.414977)" />
  </defs>
  <path
     d="M 84.197704,51.17004 C 84.200604,67.614104 70.870843,80.946179 54.426778,80.946179 C 37.982714,80.946179 24.652974,67.614104 24.655853,51.17004 C 24.652953,34.725976 37.982714,21.393901 54.426778,21.393901 C 70.870843,21.393901 84.200583,34.725976 84.197704,51.17004 z"
     id="path3289"
     style="fill:#282828;fill-opacity:1;fill-rule:evenodd;stroke:none" />
  <path
     d="M 80.278556,46.028995 C 80.281456,62.473059 66.951695,75.805134 50.50763,75.805134 C 34.063566,75.805134 20.733827,62.473059 20.736706,46.028995 C 20.733806,29.584931 34.063566,16.252856 50.50763,16.252856 C 66.951695,16.252856 80.281435,29.584931 80.278556,46.028995 z"
     id="path2277"
     style="fill:#ff0000;fill-rule:evenodd;stroke:#000000;stroke-width:0.91284072px;stroke-linecap:butt;stroke-linejoin:miter;stroke-opacity:1" />
  <path
     d="M 71.867547,66.969583 C 60.241875,78.599327 41.389126,78.600978 29.761417,66.973269 C 18.133709,55.345561 18.13536,36.492812 29.765104,24.86714 C 41.390777,13.237396 60.243525,13.235744 71.871234,24.86344 C 83.498943,36.491149 83.497291,55.343897 71.867534,66.96957 L 71.867547,66.969583 z"
     id="path3262"
     style="opacity:0.71739131;fill:url(#linearGradient3312);fill-opacity:1;fill-rule:evenodd;stroke:none" />
  <path
     d="M 56.468543,34.632946 C 56.470143,43.862602 48.988498,51.345573 39.758842,51.345573 C 30.529187,51.345573 23.047527,43.862602 23.049142,34.632946 C 23.047542,25.403291 30.529187,17.92032 39.758842,17.92032 C 48.988498,17.92032 56.470159,25.403291 56.468543,34.632946 L 56.468543,34.632946 z"
     id="path2279"
     style="fill:url(#radialGradient3309);fill-opacity:1;fill-rule:evenodd;stroke:none" />
</svg>
